**kern	**silbe	**kern	**silbe
*ICvox	*	*ICvox	*
*C:	*	*C:	*
*M4/4	*	*M4/4	*
*clefG2	*	*clefG2	*
r;	.	r;	.
=1	=1	=1	=1
1r	.	1r	.
=2	=2	=2	=2
1r	.	1r	.
=3	=3	=3	=3
1r	.	1r	.
=4	=4	=4	=4
1r	.	1r	.
=5	=5	=5	=5
1r	.	1r	.
=6	=6	=6	=6
1r	.	1r	.
=7	=7	=7	=7
1r	.	1r	.
=8	=8	=8	=8
1r	.	1r	.
=9	=9	=9	=9
1r	.	1r	.
=10	=10	=10	=10
1r	.	1r	.
=11	=11	=11	=11
1r	.	1r	.
=12	=12	=12	=12
1r	.	1r	.
=13	=13	=13	=13
1r	.	1r	.
=14	=14	=14	=14
1r	.	1r	.
=15	=15	=15	=15
1r	.	1r	.
=16	=16	=16	=16
1r	.	1r	.
=17	=17	=17	=17
1r	.	1r	.
=18	=18	=18	=18
1r	.	2r	.
.	.	4r	.
.	.	8r	.
.	.	8[c	Burn
=19	=19	=19	=19
1r	.	4c]	_
.	.	8A	ba-
.	.	8G	-by
.	.	4c	burn
.	.	4r	.
=20	=20	=20	=20
1r	.	2r	.
.	.	4r	.
.	.	8r	.
.	.	8[c	Burn
=21	=21	=21	=21
1r	.	4c]	_
.	.	8A	ba-
.	.	8G	-by
.	.	4c	burn
.	.	4r	.
=22	=22	=22	=22
1r	.	2r	.
.	.	4r	.
.	.	8r	.
.	.	8[c	Burn
=23	=23	=23	=23
1r	.	4c]	_
.	.	8A	ba-
.	.	8G	-by
.	.	4c	burn
.	.	4r	.
=24	=24	=24	=24
1r	.	2r	.
.	.	4r	.
.	.	8r	.
.	.	8[c	Burn
=25	=25	=25	=25
1r	.	4c]	_
.	.	8A	ba-
.	.	8G	-by
.	.	4c	burn?
.	.	4r	.
=26	=26	=26	=26
1r	.	2r	.
.	.	8.ee-	_
.	.	8.dd	?
.	.	8r	.
=27	=27	=27	=27
4g	To	1r	.
4r	.	.	.
4f	my	.	.
8e-	sup-	.	.
8[c	-rise	.	.
=28	=28	=28	=28
4c]	_	1r	.
8r	.	.	.
16c~	lis-	.	.
16G~	-ten	.	.
4r	.	.	.
8r	.	.	.
8c	One	.	.
=29	=29	=29	=29
8g	hun-	1r	.
8g	-dred	.	.
8r	.	.	.
8[g	stor-	.	.
8g]	_	.	.
8f	-ies	.	.
8e-	_	.	.
8[g	high	.	.
=30	=30	=30	=30
8g]	_	1r	.
8g	_	.	.
16f	_	.	.
16e-	_	.	.
8r	.	.	.
2r	.	.	.
=31	=31	=31	=31
8f#	Pe-	1r	.
8[g	-ople	.	.
4g_	_	.	.
8g]	_	.	.
8f	get-	.	.
8e-	-ting	.	.
8[f	loose	.	.
=32	=32	=32	=32
8f]	_	1r	.
8c	y'all	.	.
4r	.	.	.
4r	.	.	.
8e-	Get-	.	.
8f	-ting	.	.
=33	=33	=33	=33
2g	down	1r	.
8f	on	.	.
8e-	_	.	.
8c	the	.	.
8[c	roof	.	.
=34	=34	=34	=34
16c]	_	1r	.
16r	.	.	.
16r	.	.	.
16B-	ya	.	.
8c	hear?	.	.
8r	.	.	.
2r	.	.	.
=35	=35	=35	=35
4r	.	1r	.
8r	.	.	.
8g~	The	.	.
4cc	folks	.	.
8b-	are	.	.
8[cc	scream-	.	.
=36	=36	=36	=36
8cc]	_	1r	.
8b-	-in'	.	.
4r	.	.	.
2r	.	.	.
=37	=37	=37	=37
2r	.	1r	.
8g	out	.	.
8f	of	.	.
8e-	con-	.	.
8[g	-trol	.	.
=38	=38	=38	=38
8g]	_	1r	.
8g	_	.	.
16f	_	.	.
16e-	_	.	.
8r	.	.	.
8r	.	.	.
8c	It	.	.
8c	was	.	.
8[g	so	.	.
=39	=39	=39	=39
2g]	_	1r	.
8g	en-	.	.
8f#	-ter-	.	.
8r	.	.	.
8[f	-tain-	.	.
=40	=40	=40	=40
8f]	_	1r	.
8g	-in'	.	.
4r	.	.	.
4r	.	.	.
8c	when	.	.
8e-	the	.	.
=41	=41	=41	=41
8g	boo-	1r	.
8f#	-gie	.	.
4r	.	.	.
8f	start-	.	.
8c	-ed	.	.
8c	to	.	.
8[c	explode	.	.
=42	=42	=42	=42
16c]	_	2r	.
16r	.	.	.
8e-	I	.	.
8d	heard	.	.
8c	some-	.	.
8d	-bo-	4r	.
8c	-dy	.	.
4c	say	8r	.
.	.	8[c	Burn
=43	=43	=43	=43
1r	.	4c]	_
.	.	8A	ba-
.	.	8G	-by
.	.	4c	burn
.	.	4r	.
=44	=44	=44	=44
8a	Dis-	2r	.
8g	-ci	.	.
8f	in-	.	.
8f	-fer-	.	.
8f#	_	4r	.
8g	-no	.	.
4r	.	8r	.
.	.	8[c	Burn
=45	=45	=45	=45
2r	.	4c]	_
.	.	8A	ba-
.	.	8G	-by
4r	.	4c	burn
8B-	Burn	4r	.
8B-	the	.	.
=46	=46	=46	=46
8B-	mo-	2r	.
8c	-ther	.	.
4c	down	.	.
2r	.	4r	.
.	.	8r	.
.	.	8[c	Burn
=47	=47	=47	=47
1r	.	4c]	_
.	.	8A	ba-
.	.	8G	-by
.	.	4c	burn
.	.	4r	.
=48	=48	=48	=48
6f	dis-	2r	.
6g-	-co	.	.
6f	in-	.	.
8f	-fer-	4r	.
4.[g	-no	.	.
.	.	8r	.
.	.	8[c	Burn
=49	=49	=49	=49
8g]	_	4c]	_
16g	Yeah	.	.
16g-	_	.	.
8f	_	8A	ba-
8r	.	8G	-by
4r	.	4c	burn?
8B-	Burn	4r	.
8B-	the	.	.
=50	=50	=50	=50
8B-	mo-	2r	.
8c	-ther	.	.
8c	down	.	.
8r	.	.	.
2r	.	8.ee-	_
.	.	8.dd	?
.	.	8r	.
=51	=51	=51	=51
2.g	Sa-	1r	.
8f	-tis-	.	.
8[f	-fac-	.	.
=52	=52	=52	=52
8f]	_	2r	.
8g	-tion	.	.
4r	.	.	.
2r	.	8b-	Hoo
.	.	4cc	hoo
.	.	8[ee-	hoo
=53	=53	=53	=53
4g	came	4ee-]	_
8f	in	4r	.
8e-	a	.	.
8f	chain	2r	.
8c	_	.	.
8c	re-	.	.
8[c	-ac-	.	.
=54	=54	=54	=54
8c]	_	2r	.
8B-	-tion	.	.
4r	.	.	.
2r	.	4r	.
.	.	8r	.
.	.	8[cc	Burn-
=55	=55	=55	=55
4r	.	4cc]	_
8r	.	4a	-in'
8g~	I	.	.
8cc~	could-	2r	.
8cc~	-n't	.	.
8cc~	get	.	.
8cc~	e-	.	.
=56	=56	=56	=56
8g~	-nough	1r	.
8r	.	.	.
4r	.	.	.
4r	.	.	.
8c	so	.	.
8e-	I	.	.
=57	=57	=57	=57
4.g	had	1r	.
8f	to	.	.
8f~	self	.	.
8r	.	.	.
8c	de-	.	.
8c	-struct	.	.
=58	=58	=58	=58
1r	.	2r	.
.	.	8b-	Hoo
.	.	4cc	hoo
.	.	8[ee-	hoo
=59	=59	=59	=59
2r	.	4ee-]	_
.	.	4r	.
8g-	Heat	2r	.
4f	was	.	.
8[g	on	.	.
=60	=60	=60	=60
8g]	_	2r	.
8g	_	.	.
16f	_	.	.
8.e-	_	.	.
4r	.	4r	.
8r	.	8r	.
8[g	ri-	8[cc	Burn-
=61	=61	=61	=61
4.g]	_	4cc]	_
.	.	4a	-in'
8f	-sing	.	.
8f	to	2r	.
8e-	the	.	.
8r	.	.	.
8g	top	.	.
=62	=62	=62	=62
4r	.	1r	.
8c~	Uh	.	.
8r	.	.	.
2r	.	.	.
=63	=63	=63	=63
4r	.	1r	.
8b-~	Ev-	.	.
8b-~	-ery-	.	.
8b-~	-bo-	.	.
8b-~	-dy	.	.
4b-~	going	.	.
=64	=64	=64	=64
8g~	strong	1r	.
8r	.	.	.
4r	.	.	.
4r	.	.	.
8r	.	.	.
8[g	that	.	.
=65	=65	=65	=65
8g]	_	1r	.
8f	is	.	.
8f	when	.	.
8e-	my	.	.
8f	spark	.	.
8r	.	.	.
8c	got	.	.
8r	.	.	.
=66	=66	=66	=66
8c	hot	2r	.
8e-	I	.	.
8d	heard	.	.
8c	some-	.	.
8d	-bo-	4r	.
8c	-dy	.	.
4c	say	8r	.
.	.	8[c	Burn
=67	=67	=67	=67
1r	.	4c]	_
.	.	8A	ba-
.	.	8G	-by
.	.	4c	burn
.	.	4r	.
=68	=68	=68	=68
8a	Dis-	2r	.
8g	-ci	.	.
8f	in-	.	.
8f	-fer-	.	.
8f#	_	4r	.
8g	-no	.	.
4r	.	8r	.
.	.	8[c	Burn
=69	=69	=69	=69
4r	.	4c]	_
4r	.	8A	ba-
.	.	8G	-by
8r	.	4c	burn
8a~	burn	.	.
8g~	_	4r	.
8g	that	.	.
=70	=70	=70	=70
8r	.	2r	.
8e-	mo-	.	.
8f	-ther	.	.
8[c	down	.	.
8c]	_	4r	.
4c	ya'll	.	.
.	.	8r	.
8r	.	8[c	Burn
=71	=71	=71	=71
1r	.	4c]	_
.	.	8A	ba-
.	.	8G	-by
.	.	4c	burn
.	.	4r	.
=72	=72	=72	=72
8f	dis-	2r	.
8f	-co	.	.
8f	in-	.	.
8[f	-fer-	.	.
8f]	_	4r	.
4.[g	-no	.	.
.	.	8r	.
.	.	8[c	Burn
=73	=73	=73	=73
4.g]	_	4c]	_
.	.	8A	ba-
16g	Yeah	8G	-by
16f	_	.	.
8r	.	4c	burn?
8r	.	.	.
4r	.	4r	.
=74	=74	=74	=74
8B-	mo-	2r	.
8c	-ther	.	.
4c	down	.	.
2r	.	8.ee-	_
.	.	8.dd	?
.	.	8r	.
=75	=75	=75	=75
1r	.	4r	.
.	.	8B-	Up
.	.	8B-	a-
.	.	4d	-bove
.	.	4f	my
=76	=76	=76	=76
1r	.	2a	head
.	.	4a	I
.	.	4a	hear
=77	=77	=77	=77
2r	.	8a	mu-
.	.	8g	-sic
.	.	8g	in
.	.	8f	the
8r	.	2[g	air
8b-	I	.	.
8cc	love	.	.
8[cc	mu-	.	.
=78	=78	=78	=78
4.cc]	_	2g]	_
8b-	-sic	.	.
2r	.	2r	.
=79	=79	=79	=79
1r	.	4r	.
.	.	4B-	That
.	.	4d	makes
.	.	4f	me
=80	=80	=80	=80
1r	.	2a	know
.	.	4a	there's
.	.	4a	a
=81	=81	=81	=81
1r	.	8a	par-
.	.	8g	-ty
.	.	8g	some-
.	.	8f	_
.	.	2g	-where
=82	=82	=82	=82
1r	.	1b	_
=83	=83	=83	=83
1r	.	1r	.
=84	=84	=84	=84
2.cc	Sa-	1r	.
8b-	-tis-	.	.
8[b-	-fac-	.	.
=85	=85	=85	=85
8b-]	_	1r	.
8cc	-tion	.	.
4r	.	.	.
2r	.	.	.
=86	=86	=86	=86
4g	came	1r	.
8f	in	.	.
8e-	a	.	.
8f	chain	.	.
8c	_	.	.
8c	re-	.	.
8[c	-ac-	.	.
=87	=87	=87	=87
8c]	_	1r	.
8G~	-tion	.	.
8r	.	.	.
16r	.	.	.
16B-	ya	.	.
8c	hear?	.	.
8r	.	.	.
4r	.	.	.
=88	=88	=88	=88
4r	.	1r	.
8r	.	.	.
8g~	I	.	.
8cc~	could-	.	.
8cc~	-n't	.	.
8cc~	get	.	.
8cc~	e-	.	.
=89	=89	=89	=89
8g~	-nough	1r	.
8r	.	.	.
4r	.	.	.
4r	.	.	.
8c	so	.	.
8e-	I	.	.
=90	=90	=90	=90
4.g	had	1r	.
8f	to	.	.
8f~	self	.	.
8r	.	.	.
8c	de-	.	.
8c	-struct	.	.
=91	=91	=91	=91
8r	.	1r	.
8c~	uh	.	.
4r	.	.	.
2r	.	.	.
=92	=92	=92	=92
4.r	.	1r	.
8c	the	.	.
8g-	Heat	.	.
4f	was	.	.
8[g	on	.	.
=93	=93	=93	=93
8g]	_	1r	.
8g	_	.	.
16f	_	.	.
8.e-	_	.	.
4r	.	.	.
8r	.	.	.
8[g	ri-	.	.
=94	=94	=94	=94
4.g]	_	1r	.
8f	-sing	.	.
8f	to	.	.
8e-	the	.	.
8r	.	.	.
8g	top	.	.
=95	=95	=95	=95
8r	.	1r	.
8c~	Uh	.	.
4r	.	.	.
2r	.	.	.
=96	=96	=96	=96
4r	.	1r	.
8b-~	Ev-	.	.
8b-~	-ery-	.	.
8b-~	-bo-	.	.
8b-~	-dy	.	.
4b-~	going	.	.
=97	=97	=97	=97
8g~	strong	1r	.
8r	.	.	.
4r	.	.	.
4r	.	.	.
8r	.	.	.
8[g	that	.	.
=98	=98	=98	=98
8g]	_	1r	.
8f	is	.	.
8f	when	.	.
8e-	my	.	.
8f	spark	.	.
8r	.	.	.
8c	got	.	.
8r	.	.	.
=99	=99	=99	=99
8c	hot	2r	.
8e-	I	.	.
8d	heard	.	.
8c	some-	.	.
8d	-bo-	4r	.
8c	-dy	.	.
4c	say	8r	.
.	.	8[c	Burn
=100	=100	=100	=100
1r	.	4c]	_
.	.	8A	ba-
.	.	8G	-by
.	.	4c	burn
.	.	4r	.
=101	=101	=101	=101
8a	Dis-	2r	.
8g	-ci	.	.
8f	in-	.	.
8f	-fer-	.	.
8f#	_	4r	.
8g	-no	.	.
4r	.	8r	.
.	.	8[c	Burn
=102	=102	=102	=102
4r	.	4c]	_
4r	.	8A	ba-
.	.	8G	-by
8r	.	4c	burn
8a~	burn	.	.
8g~	_	4r	.
8g	that	.	.
=103	=103	=103	=103
8r	.	2r	.
8e-	mo-	.	.
8f	-ther	.	.
8[c	down	.	.
8c]	_	4r	.
4r	.	.	.
.	.	8r	.
8r	.	8[c	Burn
=104	=104	=104	=104
1r	.	4c]	_
.	.	8A	ba-
.	.	8G	-by
.	.	4c	burn
.	.	4r	.
=105	=105	=105	=105
8f	dis-	2r	.
8f	-co	.	.
8f	in-	.	.
8[f	-fer-	.	.
8f]	_	4r	.
4.[g	-no	.	.
.	.	8r	.
.	.	8[c	Burn
=106	=106	=106	=106
8g]	_	4c]	_
16g	Yeah	.	.
16f	_	.	.
4r	.	8A	ba-
.	.	8G	-by
4r	.	4c	burn
8B-	Burn	4r	.
8B-	the	.	.
=107	=107	=107	=107
8B-	mo-	2r	.
8c	-ther	.	.
4c	down	.	.
2r	.	4r	.
.	.	8r	.
.	.	8[c	Burn
=108	=108	=108	=108
2r	.	4c]	_
.	.	8A	ba-
.	.	8G	-by
8r	.	4c	burn
4.[cc~	Ah	.	.
.	.	4r	.
=109	=109	=109	=109
4.cc~]	_	2r	.
8cc~	hey	.	.
2r	.	4r	.
.	.	8r	.
.	.	8[c	Burn
=110	=110	=110	=110
2r	.	4c]	_
.	.	8A	ba-
.	.	8G	-by
4r	.	4c	burn
8B-	Burn	4r	.
8B-	the	.	.
=111	=111	=111	=111
8B-	mo-	2r	.
8c	-ther	.	.
4c	down	.	.
2r	.	4r	.
.	.	8r	.
.	.	8[c	Burn
=112	=112	=112	=112
1r	.	4c]	_
.	.	8A	ba-
.	.	8G	-by
.	.	4c	burn
.	.	4r	.
=113	=113	=113	=113
8a	Dis-	2r	.
8g	-ci	.	.
8f	in-	.	.
8f	-fer-	.	.
8f#	_	4r	.
8g	-no	.	.
4r	.	8r	.
.	.	8[c	Burn
=114	=114	=114	=114
1r	.	4c]	_
.	.	8A	ba-
.	.	8G	-by
.	.	4c	burn
.	.	4r	.
=115	=115	=115	=115
1r	.	1r	.
r;	.	r;	.
r;	.	r;	.
*-	*-	*-	*-
!!!ENC: Nathaniel Condit-Schultz